assets/svg/app/staking-logo.svg

<svg width="112" height="33" viewBox="0 0 112 33" fill="none" xmlns="http://www.w3.org/2000/svg">
<path d="M57.1634 10.9537C57.9279 10.9537 58.5595 11.5673 58.5595 12.31V12.8267H60.1716V12.1485C60.1716 10.7761 58.9417 9.58127 57.529 9.58127H52.7424C51.2798 9.58127 50.0831 10.76 50.0831 12.1485V13.2626C50.0831 14.6835 51.313 15.8299 52.7424 15.8299H57.3462C58.1107 15.8299 58.7257 16.4435 58.7257 17.1862V18.155C58.7257 18.8977 58.1107 19.5113 57.3462 19.5113H53.0083C52.2437 19.5113 51.6122 18.9139 51.6122 18.1712V17.6545H50V18.3326C50 19.7051 51.2299 20.8837 52.6426 20.8837H57.6952C59.1578 20.8837 60.3378 19.7051 60.3378 18.3165V17.0248C60.3378 15.6039 59.1246 14.4575 57.6952 14.4575H53.0914C52.3268 14.4575 51.6953 13.8439 51.6953 13.1012V12.31C51.6953 11.5673 52.3268 10.9537 53.0914 10.9537H57.1634Z" fill="white"/>
<path d="M67.4065 19.5759H65.9107C65.196 19.5759 64.7307 19.1238 64.7307 18.4295V13.4403H67.4232V12.1324H64.7307V10.211H63.2182V12.1324H61.6559V13.4403H63.2182V18.6071C63.2182 19.9311 64.2321 20.8837 65.5617 20.8837H67.4065V19.5759Z" fill="white"/>
<path d="M71.6837 19.5759C70.969 19.5759 70.4039 19.0431 70.4039 18.3488V14.6835C70.4039 13.9731 70.969 13.4403 71.6837 13.4403H75.5894V19.0915C75.5894 19.3983 75.3568 19.5759 75.0742 19.5759H71.6837ZM74.3928 20.8837L75.5894 19.915V20.8837H77.1019V12.1324H71.3346C70.0216 12.1324 68.8915 13.1819 68.8915 14.5059V18.5264C68.8915 19.8019 69.9884 20.8837 71.3346 20.8837H74.3928Z" fill="white"/>
<path d="M85.6142 12.1324L80.9439 16.1206V9H79.4315V20.8837H80.9439V16.6695L85.9965 20.8837H88.0408L82.5062 16.3466L87.6253 12.1324H85.6142Z" fill="white"/>
<path d="M89.4304 12.1324V20.8837H90.9428V12.1324H89.4304ZM89.4304 9.2422V10.9214H90.9428V9.2422H89.4304Z" fill="white"/>
<path d="M94.8375 13.9247C94.8375 13.634 95.0701 13.4403 95.3527 13.4403H98.8596C99.5909 13.4403 100.139 13.9731 100.139 14.6835V20.8837H101.652V14.5059C101.652 13.1819 100.538 12.1324 99.2086 12.1324H96.0009L94.8375 13.0689V12.1324H93.325V20.8837H94.8375V13.9247Z" fill="white"/>
<path d="M106.499 19.3014C105.784 19.3014 105.219 18.7686 105.219 18.0581V14.6835C105.219 13.9731 105.784 13.4403 106.499 13.4403H110.488V18.817C110.488 19.1076 110.255 19.3014 109.972 19.3014H106.499ZM109.573 24C110.936 24 112 22.9343 112 21.6426V12.1324H106.15C104.837 12.1324 103.706 13.1819 103.706 14.5059V18.2357C103.706 19.5274 104.803 20.6093 106.15 20.6093H109.291L110.488 19.6243V21.5135C110.488 22.2078 109.939 22.7406 109.224 22.7406H106.881C106.166 22.7406 105.618 22.2078 105.618 21.5135V21.2713H104.122V21.6588C104.122 22.9666 105.236 24 106.565 24H109.573Z" fill="white"/>
<path d="M10.4231 6.98991C10.1215 6.64998 9.75012 6.47961 9.30823 6.47961H0.270814C0.190543 6.47961 0.124866 6.45458 0.0754064 6.40452C0.0251355 6.35527 0 6.29955 0 6.23981V0.239806C0 0.180056 0.0251355 0.125151 0.0754064 0.0750908C0.124866 0.0250303 0.190543 0 0.270814 0H9.82066C12.2304 0 14.3094 0.970529 16.0567 2.90997L18.3764 5.69964L13.8577 11.1296L10.4231 6.98991ZM27.113 2.8801C28.8604 0.960032 30.949 0 33.3791 0H42.8989C42.9792 0 43.0392 0.0201857 43.0797 0.0597497C43.1195 0.100121 43.1397 0.159871 43.1397 0.239806V6.23981C43.1397 6.29955 43.1195 6.35527 43.0797 6.40452C43.0392 6.45458 42.9792 6.47961 42.8989 6.47961H33.8615C33.4196 6.47961 33.0483 6.64998 32.7466 6.98991L26.089 14.9697L32.7766 23.0093C33.0783 23.3298 33.4391 23.4897 33.8615 23.4897H42.8989C42.9792 23.4897 43.0392 23.5147 43.0797 23.5648C43.1195 23.6149 43.1397 23.6803 43.1397 23.7594V29.7594C43.1397 29.8191 43.1195 29.8748 43.0797 29.9241C43.0392 29.9742 42.9792 29.9992 42.8989 29.9992H33.3791C30.949 29.9992 28.8701 29.0295 27.143 27.0892L21.6003 20.4295L16.0567 27.0892C14.3094 29.0295 12.2207 29.9992 9.79066 29.9992H0.270814C0.190543 29.9992 0.129731 29.9742 0.0900011 29.9241C0.0494601 29.874 0.0300004 29.8094 0.0300004 29.7287V23.7287C0.0300004 23.669 0.0494601 23.614 0.0900011 23.564C0.129731 23.5139 0.190543 23.4889 0.270814 23.4889H9.30823C9.72985 23.4889 10.1012 23.3193 10.4231 22.9786L16.9599 15.1191L27.113 2.8801Z" fill="#00D1FF"/>
</svg>

<svg viewBox="0 0 112 33" fill="none" xmlns="http://www.w3.org/2000/svg">
    <path d="M57.163 10.954c.765 0 1.397.613 1.397 1.356v.517h1.612v-.678c0-1.373-1.23-2.568-2.643-2.568h-4.787c-1.462 0-2.659 1.179-2.659 2.568v1.114c0 1.42 1.23 2.567 2.66 2.567h4.603c.765 0 1.38.614 1.38 1.356v.969a1.37 1.37 0 01-1.38 1.356h-4.338c-.764 0-1.396-.597-1.396-1.34v-.517H50v.679c0 1.372 1.23 2.55 2.643 2.55h5.052c1.463 0 2.643-1.178 2.643-2.566v-1.292c0-1.421-1.213-2.567-2.643-2.567h-4.604c-.764 0-1.396-.614-1.396-1.357v-.791c0-.743.632-1.356 1.396-1.356h4.072zm10.243 8.622h-1.495c-.715 0-1.18-.452-1.18-1.146v-4.99h2.692v-1.308h-2.692v-1.921h-1.513v1.921h-1.562v1.308h1.562v5.167c0 1.324 1.014 2.277 2.344 2.277h1.844v-1.308zm4.278 0c-.715 0-1.28-.533-1.28-1.227v-3.665c0-.71.565-1.244 1.28-1.244h3.905v5.652c0 .306-.232.484-.515.484h-3.39zm2.709 1.308l1.196-.969v.969h1.513v-8.752h-5.767c-1.313 0-2.444 1.05-2.444 2.374v4.02c0 1.276 1.097 2.358 2.444 2.358h3.058zm11.221-8.752l-4.67 3.989V9H79.43v11.884h1.513v-4.215l5.052 4.215h2.045l-5.535-4.537 5.12-4.215h-2.012zm3.816 0v8.752h1.513v-8.752H89.43zm0-2.89v1.68h1.513v-1.68H89.43zm5.408 4.683c0-.291.232-.485.515-.485h3.507c.73 0 1.279.533 1.279 1.244v6.2h1.513v-6.378c0-1.324-1.114-2.374-2.443-2.374H96l-1.163.937v-.937h-1.513v8.752h1.513v-6.96zm11.661 5.376c-.715 0-1.28-.532-1.28-1.243v-3.374c0-.71.565-1.244 1.28-1.244h3.989v5.377c0 .29-.233.484-.516.484h-3.473zM109.573 24c1.363 0 2.427-1.066 2.427-2.357v-9.51h-5.85c-1.313 0-2.444 1.049-2.444 2.373v3.73c0 1.291 1.097 2.373 2.444 2.373h3.141l1.197-.985v1.89c0 .694-.549 1.227-1.264 1.227h-2.343c-.715 0-1.263-.533-1.263-1.227v-.243h-1.496v.388c0 1.308 1.114 2.341 2.443 2.341h3.008z" fill="#fff"/>
    <path d="M10.423 6.99a1.432 1.432 0 00-1.115-.51H.271a.263.263 0 01-.196-.075A.227.227 0 010 6.24v-6A.23.23 0 01.075.075.263.263 0 01.271 0h9.55c2.41 0 4.488.97 6.236 2.91l2.32 2.79-4.52 5.43-3.434-4.14zm16.69-4.11C28.86.96 30.949 0 33.379 0h9.52c.08 0 .14.02.18.06.04.04.06.1.06.18v6c0 .06-.02.115-.06.165-.04.05-.1.075-.18.075H33.86c-.441 0-.813.17-1.114.51l-6.658 7.98 6.688 8.04c.301.32.662.48 1.084.48h9.04c.08 0 .14.025.18.075.04.05.06.115.06.194v6c0 .06-.02.116-.06.165-.04.05-.1.075-.18.075h-9.52c-2.43 0-4.509-.97-6.236-2.91L21.6 20.43l-5.543 6.66C14.309 29.03 12.22 30 9.79 30H.27c-.08 0-.141-.025-.181-.075a.3.3 0 01-.06-.195v-6c0-.06.02-.115.06-.165.04-.05.1-.075.18-.075h9.038c.422 0 .793-.17 1.115-.51l6.537-7.86L27.113 2.88z" fill="#00D1FF"/>
</svg>
